X:1
T:Title
%%score 1 { 2 | 3 }
L:1/8
Q:1/4=100
M:4/4
K:A
V:1 treble nm="Grand Piano, Soprano"
V:2 bass nm="Choir Pad, Sword of the Lord &amp; of Gideon"
V:3 bass 
V:1
 [Ec]>[DB] [CA]2 [CA]>[EG] [DF]2 | [FA]>[DF] [CE][CA]- [CA]2- [CA]/ z/ z | %2
w: By~J.~W.~Burgess,~arr.~by~Peter~P.~Bilhorn * * * * *||
 [CA]>[DB] [Ec]2 [EB]>[EA] [Ee]2 | [Ec]>[EA] [GB]6 | [Ed]>d [Ee]2 [Ac]>[GB] [FA]2 | %5
w: |||
 [^EG]>[FA] [FB]2 [FA]4 | [=CF]2 [^CE]2 [CA]>[DB] [Ec]2 | [DB]>[CA] [CA]6 | E2 A2 A>A A2 | %9
w: ||||
 A>B c2- c/ z/ B A2 | [CE]2 [DF]2 [FA]>[DF] [CE]<[EA]- | [EA]2 [Ac][GB]- [GB][Ge]- [Ge]/[Ge]/[Ge] | %12
w: |||
 [Bd][Ac][GB][EA]- [EA][EA]- [EA]/[EA]/[EA]- | [EA][EA]- [EA]/[GB]/[Ac]- [Ac]2 [GB][EA]- | %14
w: ||
 [EA] E2 [DF] [EG][EA][FB][Ec]- | [Ec][DB]- [DB]/[CA]/[CA]- [CA]4- | [CA]4 z4 |] %17
w: |||
V:2
 A,2 E,2 E,>A, A,2 | A,>A, A,E,- E,2- E,/ z/ z | E,>A, A,2[K:treble] D>C C2 | A,>C D6 | %4
 A,>B, C2 E>D C2 | C>C D2 D4 | A,2 A,2 A,>G, A,2 | G,>A, E,6 | E,2 A,2 A,>A, A,2 | %9
 A,>B, C2- C/ z/ B, A,2 | A,2 A,2 D>A, A,<[K:treble]C- | C2 EE- EB,- B,/B,/B, | FEDC- CC- C/C/C- | %13
 CC- C/D/E- E2 DC- | C[K:bass] A,2 A, B,CDA,- | A,G,- G,/A,/E,- E,4- | E,4 z4 |] %17
V:3
 A,,2 A,,2 A,,>B,, D,2 | D,>F, z A,,- A,,2- A,,/ z/ z | A,,2 z2 G,>A, A,2 | z z/ A,/ E,6 | %4
 z2 A,2 A,>E, F,2 | C,>F, D,2 D,4 | ^D,2 E,2 E,>E, E,2 | E,>A,, A,,6 | z8 | z8 | %10
 A,,2 D,2 D,>F, z/ A,3/2- | A,2 A,E,- E,E,- E,/E,/E, | %12
 D,C,B,,[A,,E,A,]- [A,,E,A,][C,E,A,]- [C,E,A,]/[E,A,]/A,- | A,A,- A,/B,/C- C2 B,A,- | %14
 A, C,2 D, B,,A,,D,E,- | E,E,- E,/[A,,E,]/A,,- A,,4- | A,,4 z4 |] %17

